polaris-icons/icons/new-icons/FulfillmentOnHoldMajor.svg

<svg width="20" height="20" viewBox="0 0 20 20" fill="none" xmlns="http://www.w3.org/2000/svg">
<path fill-rule="evenodd" clip-rule="evenodd" d="M15 8V10.75C15 11.1642 15.3358 11.5 15.75 11.5C16.1642 11.5 16.5 11.1642 16.5 10.75V7.85555C16.5 7.31263 16.3393 6.78186 16.0381 6.33013L14.8193 4.50192C14.402 3.87598 13.6995 3.5 12.9472 3.5H7.15068C6.4209 3.5 5.73645 3.85394 5.31463 4.44946L4.00593 6.29703C3.67678 6.76171 3.5 7.31712 3.5 7.88657V14.75C3.5 15.7165 4.2835 16.5 5.25 16.5H11.25C11.6642 16.5 12 16.1642 12 15.75C12 15.3358 11.6642 15 11.25 15H5.25C5.11193 15 5 14.8881 5 14.75V8H15ZM7.15068 5C6.90742 5 6.67927 5.11798 6.53866 5.31649L5.70034 6.5H9.25V5H7.15068ZM10.75 6.5H14.3486L13.5713 5.33397C13.4322 5.12533 13.198 5 12.9472 5H10.75V6.5Z" fill="#4A4A4A"/>
<path fill-rule="evenodd" clip-rule="evenodd" d="M7 9C6.44772 9 6 9.44771 6 10V13C6 13.5523 6.44771 14 7 14H11C11.5523 14 12 13.5523 12 13V10C12 9.44772 11.5523 9 11 9H7ZM7.5 12.5V10.5H10.5V12.5H7.5Z" fill="#4A4A4A"/>
<path d="M16.75 12.5C17.1642 12.5 17.5 12.8358 17.5 13.25V17.25C17.5 17.6642 17.1642 18 16.75 18C16.3358 18 16 17.6642 16 17.25V13.25C16 12.8358 16.3358 12.5 16.75 12.5Z" fill="#4A4A4A"/>
<path d="M14.5 13.25C14.5 12.8358 14.1642 12.5 13.75 12.5C13.3358 12.5 13 12.8358 13 13.25V17.25C13 17.6642 13.3358 18 13.75 18C14.1642 18 14.5 17.6642 14.5 17.25V13.25Z" fill="#4A4A4A"/>
</svg>

<svg viewBox="0 0 20 20" xmlns="http://www.w3.org/2000/svg"><path fill-rule="evenodd" d="M15 8v2.75a.75.75 0 0 0 1.5 0v-2.894a2.75 2.75 0 0 0-.462-1.526l-1.219-1.828a2.25 2.25 0 0 0-1.872-1.002h-5.796a2.25 2.25 0 0 0-1.836.95l-1.31 1.847a2.75 2.75 0 0 0-.505 1.59v6.863c0 .966.784 1.75 1.75 1.75h6a.75.75 0 0 0 0-1.5h-6a.25.25 0 0 1-.25-.25v-6.75h10Zm-7.85-3a.75.75 0 0 0-.611.316l-.839 1.184h3.55v-1.5h-2.1Zm3.6 1.5h3.599l-.778-1.166a.75.75 0 0 0-.624-.334h-2.197v1.5Z" fill="#5C5F62"/><path fill-rule="evenodd" d="M7 9a1 1 0 0 0-1 1v3a1 1 0 0 0 1 1h4a1 1 0 0 0 1-1v-3a1 1 0 0 0-1-1h-4Zm.5 3.5v-2h3v2h-3Z" fill="#5C5F62"/><path d="M16.75 12.5a.75.75 0 0 1 .75.75v4a.75.75 0 0 1-1.5 0v-4a.75.75 0 0 1 .75-.75Z" fill="#5C5F62"/><path d="M14.5 13.25a.75.75 0 0 0-1.5 0v4a.75.75 0 0 0 1.5 0v-4Z" fill="#5C5F62"/></svg>
